icons/fold-16.svg

<svg width="16" height="16" viewBox="0 0 16 16" xmlns="http://www.w3.org/2000/svg">
  <path fill-rule="evenodd" clip-rule="evenodd" d="M10.8964 1.99998L8.75 1.99998V0.75C8.75 0.335786 8.41421 0 8 0C7.58579 0 7.25 0.335786 7.25 0.75V1.99998L5.10355 1.99998C4.88083 1.99998 4.76928 2.26926 4.92678 2.42675L7.82322 5.3232C7.92085 5.42083 8.07914 5.42083 8.17677 5.3232L11.0732 2.42675C11.2307 2.26926 11.1192 1.99998 10.8964 1.99998ZM8.75 15.25C8.75 15.6642 8.41421 16 8 16C7.58579 16 7.25 15.6642 7.25 15.25L7.25 14H5.10355C4.88083 14 4.76928 13.7307 4.92677 13.5732L7.82322 10.6768C7.92085 10.5792 8.07914 10.5792 8.17677 10.6768L11.0732 13.5732C11.2307 13.7307 11.1192 14 10.8964 14H8.75L8.75 15.25ZM2.25 8.75C2.66421 8.75 3 8.41421 3 8C3 7.58579 2.66421 7.25 2.25 7.25H1.75C1.33579 7.25 1 7.58579 1 8C1 8.41421 1.33579 8.75 1.75 8.75H2.25ZM6 8C6 8.41421 5.66421 8.75 5.25 8.75H4.75C4.33579 8.75 4 8.41421 4 8C4 7.58579 4.33579 7.25 4.75 7.25H5.25C5.66421 7.25 6 7.58579 6 8ZM8.25 8.75C8.66421 8.75 9 8.41421 9 8C9 7.58579 8.66421 7.25 8.25 7.25H7.75C7.33579 7.25 7 7.58579 7 8C7 8.41421 7.33579 8.75 7.75 8.75H8.25ZM12 8C12 8.41421 11.6642 8.75 11.25 8.75H10.75C10.3358 8.75 10 8.41421 10 8C10 7.58579 10.3358 7.25 10.75 7.25H11.25C11.6642 7.25 12 7.58579 12 8ZM14.25 8.75C14.6642 8.75 15 8.41421 15 8C15 7.58579 14.6642 7.25 14.25 7.25H13.75C13.3358 7.25 13 7.58579 13 8C13 8.41421 13.3358 8.75 13.75 8.75H14.25Z"/>
</svg>

<svg xmlns="http://www.w3.org/2000/svg" width="16" height="16" viewBox="0 0 16 16"><path fill-rule="evenodd" d="M10.896 2H8.75V.75a.75.75 0 00-1.5 0V2H5.104a.25.25 0 00-.177.427l2.896 2.896a.25.25 0 00.354 0l2.896-2.896A.25.25 0 0010.896 2zM8.75 15.25a.75.75 0 01-1.5 0V14H5.104a.25.25 0 01-.177-.427l2.896-2.896a.25.25 0 01.354 0l2.896 2.896a.25.25 0 01-.177.427H8.75v1.25zm-6.5-6.5a.75.75 0 000-1.5h-.5a.75.75 0 000 1.5h.5zM6 8a.75.75 0 01-.75.75h-.5a.75.75 0 010-1.5h.5A.75.75 0 016 8zm2.25.75a.75.75 0 000-1.5h-.5a.75.75 0 000 1.5h.5zM12 8a.75.75 0 01-.75.75h-.5a.75.75 0 010-1.5h.5A.75.75 0 0112 8zm2.25.75a.75.75 0 000-1.5h-.5a.75.75 0 000 1.5h.5z"/></svg>
